cheesecake-frontend/public/assets/calender.svg

<svg width="30" height="30" viewBox="0 0 30 30" fill="none" xmlns="http://www.w3.org/2000/svg">
<g id="Hicon / Bold / Calender 2">
<g id="Calender 2">
<g id="Vector">
<path fill-rule="evenodd" clip-rule="evenodd" d="M9.375 5.16583C8.07323 5.32018 7.11836 5.61821 6.32634 6.19364C5.79575 6.57914 5.32914 7.04575 4.94364 7.57634C3.75 9.21925 3.75 11.5628 3.75 16.25C3.75 20.9372 3.75 23.2808 4.94364 24.9237C5.32914 25.4543 5.79575 25.9209 6.32634 26.3064C7.96925 27.5 10.3128 27.5 15 27.5C16.0487 27.5 16.98 27.5 17.8125 27.4866L17.8125 27.399C17.8124 26.334 17.8124 25.6852 17.901 25.1256C18.3881 22.0501 20.8001 19.6381 23.8756 19.151C24.4352 19.0624 25.084 19.0624 26.149 19.0625L26.2366 19.0625C26.25 18.2302 26.25 17.299 26.25 16.2506C26.25 11.5634 26.25 9.21925 25.0564 7.57634C24.6709 7.04575 24.2043 6.57914 23.6737 6.19364C22.8816 5.61821 21.9268 5.32018 20.625 5.16583V6.25C20.625 7.28553 19.7855 8.125 18.75 8.125C17.7145 8.125 16.875 7.28553 16.875 6.25V5.00351C16.2949 5 15.6715 5 15 5C14.3285 5 13.7051 5 13.125 5.00351V6.25C13.125 7.28553 12.2855 8.125 11.25 8.125C10.2145 8.125 9.375 7.28553 9.375 6.25V5.16583ZM8.75 12.5C9.44036 12.5 10 11.9404 10 11.25C10 10.5596 9.44036 10 8.75 10C8.05964 10 7.5 10.5596 7.5 11.25C7.5 11.9404 8.05964 12.5 8.75 12.5ZM10 16.25C10 16.9404 9.44036 17.5 8.75 17.5C8.05964 17.5 7.5 16.9404 7.5 16.25C7.5 15.5596 8.05964 15 8.75 15C9.44036 15 10 15.5596 10 16.25ZM15 12.5C15.6904 12.5 16.25 11.9404 16.25 11.25C16.25 10.5596 15.6904 10 15 10C14.3096 10 13.75 10.5596 13.75 11.25C13.75 11.9404 14.3096 12.5 15 12.5ZM16.25 16.25C16.25 16.9404 15.6904 17.5 15 17.5C14.3096 17.5 13.75 16.9404 13.75 16.25C13.75 15.5596 14.3096 15 15 15C15.6904 15 16.25 15.5596 16.25 16.25ZM15 22.5C15.6904 22.5 16.25 21.9404 16.25 21.25C16.25 20.5596 15.6904 20 15 20C14.3096 20 13.75 20.5596 13.75 21.25C13.75 21.9404 14.3096 22.5 15 22.5ZM22.5 11.25C22.5 11.9404 21.9404 12.5 21.25 12.5C20.5596 12.5 20 11.9404 20 11.25C20 10.5596 20.5596 10 21.25 10C21.9404 10 22.5 10.5596 22.5 11.25ZM21.25 17.5C21.9404 17.5 22.5 16.9404 22.5 16.25C22.5 15.5596 21.9404 15 21.25 15C20.5596 15 20 15.5596 20 16.25C20 16.9404 20.5596 17.5 21.25 17.5ZM10 21.25C10 21.9404 9.44036 22.5 8.75 22.5C8.05964 22.5 7.5 21.9404 7.5 21.25C7.5 20.5596 8.05964 20 8.75 20C9.44036 20 10 20.5596 10 21.25Z" fill="black"/>
<path d="M26.1683 20.9375C25.0304 20.9377 24.5544 20.9419 24.1689 21.0029C21.8958 21.3629 20.1129 23.1458 19.7529 25.4189C19.6919 25.8044 19.6877 26.2804 19.6875 27.4183C21.487 27.3003 22.7027 27.0118 23.6737 26.3064C24.2043 25.9209 24.6709 25.4543 25.0564 24.9237C25.7618 23.9527 26.0503 22.737 26.1683 20.9375Z" fill="black"/>
<path d="M12.1875 2.5C12.1875 1.98223 11.7678 1.5625 11.25 1.5625C10.7322 1.5625 10.3125 1.98223 10.3125 2.5V6.25C10.3125 6.76777 10.7322 7.1875 11.25 7.1875C11.7678 7.1875 12.1875 6.76777 12.1875 6.25V2.5Z" fill="black"/>
<path d="M19.6875 2.5C19.6875 1.98223 19.2678 1.5625 18.75 1.5625C18.2322 1.5625 17.8125 1.98223 17.8125 2.5V6.25C17.8125 6.76777 18.2322 7.1875 18.75 7.1875C19.2678 7.1875 19.6875 6.76777 19.6875 6.25V2.5Z" fill="black"/>
</g>
</g>
</g>
</svg>

<?xml version="1.0" encoding="utf-8"?>
<!-- Generator: Adobe Illustrator 28.2.0, SVG Export Plug-In . SVG Version: 6.00 Build 0)  -->
<svg version="1.1" id="Layer_1" xmlns="http://www.w3.org/2000/svg" xmlns:xlink="http://www.w3.org/1999/xlink" x="0px" y="0px"
	 viewBox="0 0 30 30" style="enable-background:new 0 0 30 30;" xml:space="preserve">
<style type="text/css">
	.st0{fill-rule:evenodd;clip-rule:evenodd;fill:#FFFFFF;}
	.st1{fill:#FFFFFF;}
</style>
<g id="Hicon__x2F__Bold__x2F__Calender_2">
	<g id="Calender_2">
		<g id="Vector">
			<path class="st0" d="M9.4,5.2c-1.3,0.2-2.3,0.5-3,1C5.8,6.6,5.3,7,4.9,7.6c-1.2,1.6-1.2,4-1.2,8.7s0,7,1.2,8.7
				c0.4,0.5,0.9,1,1.4,1.4c1.6,1.2,4,1.2,8.7,1.2c1,0,2,0,2.8,0v-0.1c0-1.1,0-1.7,0.1-2.3c0.5-3.1,2.9-5.5,6-6
				c0.6-0.1,1.2-0.1,2.3-0.1h0.1c0-0.8,0-1.8,0-2.8c0-4.7,0-7-1.2-8.7c-0.4-0.5-0.9-1-1.4-1.4c-0.8-0.6-1.7-0.9-3-1v1.1
				c0,1-0.8,1.9-1.9,1.9s-1.9-0.8-1.9-1.9V5c-0.6,0-1.2,0-1.9,0s-1.3,0-1.9,0v1.2c0,1-0.8,1.9-1.9,1.9S9.4,7.3,9.4,6.2V5.2z
				 M8.8,12.5c0.7,0,1.2-0.6,1.2-1.2S9.4,10,8.8,10s-1.2,0.6-1.2,1.2S8.1,12.5,8.8,12.5z M10,16.2c0,0.7-0.6,1.2-1.2,1.2
				s-1.2-0.6-1.2-1.2c0-0.7,0.6-1.2,1.2-1.2S10,15.6,10,16.2z M15,12.5c0.7,0,1.2-0.6,1.2-1.2S15.7,10,15,10s-1.2,0.6-1.2,1.2
				S14.3,12.5,15,12.5z M16.2,16.2c0,0.7-0.6,1.2-1.2,1.2s-1.2-0.6-1.2-1.2c0-0.7,0.6-1.2,1.2-1.2S16.2,15.6,16.2,16.2z M15,22.5
				c0.7,0,1.2-0.6,1.2-1.2S15.7,20,15,20s-1.2,0.6-1.2,1.2S14.3,22.5,15,22.5z M22.5,11.2c0,0.7-0.6,1.2-1.2,1.2S20,11.9,20,11.2
				s0.6-1.2,1.2-1.2S22.5,10.6,22.5,11.2z M21.2,17.5c0.7,0,1.2-0.6,1.2-1.2c0-0.7-0.6-1.2-1.2-1.2S20,15.6,20,16.2
				C20,16.9,20.6,17.5,21.2,17.5z M10,21.2c0,0.7-0.6,1.2-1.2,1.2s-1.2-0.6-1.2-1.2S8.1,20,8.8,20S10,20.6,10,21.2z"/>
			<path class="st1" d="M26.2,20.9c-1.1,0-1.6,0-2,0.1c-2.3,0.4-4.1,2.1-4.4,4.4c-0.1,0.4-0.1,0.9-0.1,2c1.8-0.1,3-0.4,4-1.1
				c0.5-0.4,1-0.9,1.4-1.4C25.8,24,26.1,22.7,26.2,20.9z"/>
			<path class="st1" d="M12.2,2.5c0-0.5-0.4-0.9-0.9-0.9S10.3,2,10.3,2.5v3.8c0,0.5,0.4,0.9,0.9,0.9s0.9-0.4,0.9-0.9V2.5z"/>
			<path class="st1" d="M19.7,2.5c0-0.5-0.4-0.9-0.9-0.9S17.8,2,17.8,2.5v3.8c0,0.5,0.4,0.9,0.9,0.9s0.9-0.4,0.9-0.9V2.5z"/>
		</g>
	</g>
</g>
</svg>
